svgs/stickers_for_whatsapp.svg

<svg xmlns="http://www.w3.org/2000/svg" viewBox="0 0 192 192"><path d="M20.096 174.664C17.824 173.4 16 169.481 16 165.861c0-5.315 11.25-17.698 60.634-66.747l60.634-60.223-33.072-1.204c-29.897-1.09-33.389-1.679-36.36-6.136-2.801-4.201-2.733-5.717.455-10.241 3.643-5.171 5.006-5.31 51.916-5.31 40.562 0 48.776.598 51.983 3.787 3.208 3.188 3.81 11.352 3.81 51.67 0 46.626-.14 47.981-5.342 51.602-4.553 3.17-6.075 3.237-10.303.45-4.541-2.993-5.018-6.096-5.639-36.626l-.678-33.356-61.14 60.437c-33.627 33.24-62.843 61.008-64.923 61.707-2.081.699-5.626.246-7.879-1.007Z"/></svg>

<svg
    xmlns="http://www.w3.org/2000/svg"
    viewBox="0 0 192 192"
    id="vector">
    <g id="group">
        <path
            id="path_6"
            d="M 20.096 174.664 C 17.824 173.4 16 169.481 16 165.861 C 16 160.546 27.25 148.163 76.634 99.114 L 137.268 38.891 L 104.196 37.687 C 74.299 36.597 70.807 36.008 67.836 31.551 C 65.035 27.35 65.103 25.834 68.291 21.31 C 71.934 16.139 73.297 16 120.207 16 C 160.769 16 168.983 16.598 172.19 19.787 C 175.398 22.975 176 31.139 176 71.457 C 176 118.083 175.86 119.438 170.658 123.059 C 166.105 126.229 164.583 126.296 160.355 123.509 C 155.814 120.516 155.337 117.413 154.716 86.883 L 154.038 53.527 L 92.898 113.964 C 59.271 147.204 30.055 174.972 27.975 175.671 C 25.894 176.37 22.349 175.917 20.096 174.664 Z"
            fill="#000000"
            stroke-width="12"/>
    </g>
</svg>
